www/assets/icons/zoom_out_map.svg

<svg xmlns="http://www.w3.org/2000/svg" width="24" height="24" viewBox="0 0 24 24" fill='currentColor'><path d="m15 3 2.3 2.3-2.89 2.87 1.42 1.42L18.7 6.7 21 9V3zM3 9l2.3-2.3 2.87 2.89 1.42-1.42L6.7 5.3 9 3H3zm6 12-2.3-2.3 2.89-2.87-1.42-1.42L5.3 17.3 3 15v6zm12-6-2.3 2.3-2.87-2.89-1.42 1.42 2.89 2.87L15 21h6z"/></svg>

<svg width="24" height="24" viewBox="0 0 24 24" xmlns="http://www.w3.org/2000/svg" fill='currentColor'><path d="M15 3L17.3 5.3L14.41 8.17L15.83 9.59L18.7 6.7L21 9V3H15ZM3 9L5.3 6.7L8.17 9.59L9.59 8.17L6.7 5.3L9 3H3V9ZM9 21L6.7 18.7L9.59 15.83L8.17 14.41L5.3 17.3L3 15V21H9ZM21 15L18.7 17.3L15.83 14.41L14.41 15.83L17.3 18.7L15 21H21V15Z"/></svg>
